assets/images/react.svg

<?xml version="1.0" encoding="UTF-8"?>
<!DOCTYPE svg  PUBLIC '-//W3C//DTD SVG 1.1//EN'  'http://www.w3.org/Graphics/SVG/1.1/DTD/svg11.dtd'>
<svg clip-rule="evenodd" fill-rule="evenodd" stroke-linejoin="round" stroke-miterlimit="2" version="1.1" viewBox="0 0 100 100" xml:space="preserve" xmlns="http://www.w3.org/2000/svg">
    <g transform="matrix(.19336 0 0 .19336 .5 .49527)">
        <path d="m418.2 177.2c-5.4-1.8-10.8-3.5-16.2-5.1 0.9-3.7 1.7-7.4 2.5-11.1 12.3-59.6 4.2-107.5-23.1-123.3-26.3-15.1-69.2 0.6-112.6 38.4-4.3 3.7-8.5 7.6-12.5 11.5-2.7-2.6-5.5-5.2-8.3-7.7-45.5-40.4-91.1-57.4-118.4-41.5-26.2 15.2-34 60.3-23 116.7 1.1 5.6 2.3 11.1 3.7 16.7-6.4 1.8-12.7 3.8-18.6 5.9-53.4 18.5-91.7 47.7-91.7 77.9 0 31.2 40.8 62.5 96.3 81.5 4.5 1.5 9 3 13.6 4.3-1.5 6-2.8 11.9-4 18-10.5 55.5-2.3 99.5 23.9 114.6 27 15.6 72.4-0.4 116.6-39.1 3.5-3.1 7-6.3 10.5-9.7 4.4 4.3 9 8.4 13.6 12.4 42.8 36.8 85.1 51.7 111.2 36.6 27-15.6 35.8-62.9 24.4-120.5-0.9-4.4-1.9-8.9-3-13.5 3.2-0.9 6.3-1.9 9.4-2.9 57.7-19.1 99.5-50 99.5-81.7 0-30.3-39.4-59.7-93.8-78.4zm-135.3-84.9c37.2-32.4 71.9-45.1 87.7-36 16.9 9.7 23.4 48.9 12.8 100.4-0.7 3.4-1.4 6.7-2.3 10-22.2-5-44.7-8.6-67.3-10.6-13-18.6-27.2-36.4-42.6-53.1 3.9-3.7 7.7-7.2 11.7-10.7zm-115.7 215.2c5.1 8.7 10.3 17.4 15.8 25.9-15.6-1.7-31.1-4.2-46.4-7.5 4.4-14.4 9.9-29.3 16.3-44.5 4.6 8.8 9.3 17.5 14.3 26.1zm-30.3-120.3c14.4-3.2 29.7-5.8 45.6-7.8-5.3 8.3-10.5 16.8-15.4 25.4-4.9 8.5-9.7 17.2-14.2 26-6.3-14.9-11.6-29.5-16-43.6zm27.4 68.9c6.6-13.8 13.8-27.3 21.4-40.6s15.8-26.2 24.4-38.9c15-1.1 30.3-1.7 45.9-1.7s31 0.6 45.9 1.7c8.5 12.6 16.6 25.5 24.3 38.7s14.9 26.7 21.7 40.4c-6.7 13.8-13.9 27.4-21.6 40.8-7.6 13.3-15.7 26.2-24.2 39-14.9 1.1-30.4 1.6-46.1 1.6s-30.9-0.5-45.6-1.4c-8.7-12.7-16.9-25.7-24.6-39s-14.8-26.8-21.5-40.6zm180.6 51.2c5.1-8.8 9.9-17.7 14.6-26.7 6.4 14.5 12 29.2 16.9 44.3-15.5 3.5-31.2 6.2-47 8 5.4-8.4 10.5-17 15.5-25.6zm14.4-76.5c-4.7-8.8-9.5-17.6-14.5-26.2-4.9-8.5-10-16.9-15.3-25.2 16.1 2 31.5 4.7 45.9 8-4.6 14.8-10 29.2-16.1 43.4zm-103.1-112.5c10.5 11.4 20.4 23.4 29.6 35.8-19.8-0.9-39.7-0.9-59.5 0 9.8-12.9 19.9-24.9 29.9-35.8zm-116-61.3c16.8-9.8 54.1 4.2 93.4 39 2.5 2.2 5 4.6 7.6 7-15.5 16.7-29.8 34.5-42.9 53.1-22.6 2-45 5.5-67.2 10.4-1.3-5.1-2.4-10.3-3.5-15.5-9.4-48.4-3.2-84.9 12.6-94zm-24.5 263.6c-4.2-1.2-8.3-2.5-12.4-3.9-21.3-6.7-45.5-17.3-63-31.2-10.1-7-16.9-17.8-18.8-29.9 0-18.3 31.6-41.7 77.2-57.6 5.7-2 11.5-3.8 17.3-5.5 6.8 21.7 15 43 24.5 63.6-9.6 20.9-17.9 42.5-24.8 64.5zm116.6 98c-16.5 15.1-35.6 27.1-56.4 35.3-11.1 5.3-23.9 5.8-35.3 1.3-15.9-9.2-22.5-44.5-13.5-92 1.1-5.6 2.3-11.2 3.7-16.7 22.4 4.8 45 8.1 67.9 9.8 13.2 18.7 27.7 36.6 43.2 53.4-3.2 3.1-6.4 6.1-9.6 8.9zm24.5-24.3c-10.2-11-20.4-23.2-30.3-36.3 9.6 0.4 19.5 0.6 29.5 0.6 10.3 0 20.4-0.2 30.4-0.7-9.2 12.7-19.1 24.8-29.6 36.4zm130.7 30c-0.9 12.2-6.9 23.6-16.5 31.3-15.9 9.2-49.8-2.8-86.4-34.2-4.2-3.6-8.4-7.5-12.7-11.5 15.3-16.9 29.4-34.8 42.2-53.6 22.9-1.9 45.7-5.4 68.2-10.5 1 4.1 1.9 8.2 2.7 12.2 4.9 21.6 5.7 44.1 2.5 66.3zm18.2-107.5c-2.8 0.9-5.6 1.8-8.5 2.6-7-21.8-15.6-43.1-25.5-63.8 9.6-20.4 17.7-41.4 24.5-62.9 5.2 1.5 10.2 3.1 15 4.7 46.6 16 79.3 39.8 79.3 58 0 19.6-34.9 44.9-84.8 61.4zm-149.7-15c25.3 0 45.8-20.5 45.8-45.8s-20.5-45.8-45.8-45.8-45.8 20.5-45.8 45.8 20.5 45.8 45.8 45.8z" fill-rule="nonzero"/>
    </g>
</svg>

<?xml version="1.0" encoding="UTF-8" standalone="no"?>
<!DOCTYPE svg PUBLIC "-//W3C//DTD SVG 1.1//EN" "http://www.w3.org/Graphics/SVG/1.1/DTD/svg11.dtd">
<svg width="100%" height="100%" viewBox="0 0 100 100" version="1.1" xmlns="http://www.w3.org/2000/svg" xmlns:xlink="http://www.w3.org/1999/xlink" xml:space="preserve" xmlns:serif="http://www.serif.com/" style="fill-rule:evenodd;clip-rule:evenodd;stroke-linejoin:round;stroke-miterlimit:2;">
    <g id="react" transform="matrix(0.193359,0,0,0.193359,0.5,0.495269)">
        <path d="M418.2,177.2C412.8,175.4 407.4,173.7 402,172.1C402.9,168.4 403.7,164.7 404.5,161C416.8,101.4 408.7,53.5 381.4,37.7C355.1,22.6 312.2,38.3 268.8,76.1C264.5,79.8 260.3,83.7 256.3,87.6C253.6,85 250.8,82.4 248,79.9C202.5,39.5 156.9,22.5 129.6,38.4C103.4,53.6 95.6,98.7 106.6,155.1C107.7,160.7 108.9,166.2 110.3,171.8C103.9,173.6 97.6,175.6 91.7,177.7C38.3,196.2 0,225.4 0,255.6C0,286.8 40.8,318.1 96.3,337.1C100.8,338.6 105.3,340.1 109.9,341.4C108.4,347.4 107.1,353.3 105.9,359.4C95.4,414.9 103.6,458.9 129.8,474C156.8,489.6 202.2,473.6 246.4,434.9C249.9,431.8 253.4,428.6 256.9,425.2C261.3,429.5 265.9,433.6 270.5,437.6C313.3,474.4 355.6,489.3 381.7,474.2C408.7,458.6 417.5,411.3 406.1,353.7C405.2,349.3 404.2,344.8 403.1,340.2C406.3,339.3 409.4,338.3 412.5,337.3C470.2,318.2 512,287.3 512,255.6C512,225.3 472.6,195.9 418.2,177.2ZM282.9,92.3C320.1,59.9 354.8,47.2 370.6,56.3C387.5,66 394,105.2 383.4,156.7C382.7,160.1 382,163.4 381.1,166.7C358.9,161.7 336.4,158.1 313.8,156.1C300.8,137.5 286.6,119.7 271.2,103C275.1,99.3 278.9,95.8 282.9,92.3ZM167.2,307.5C172.3,316.2 177.5,324.9 183,333.4C167.4,331.7 151.9,329.2 136.6,325.9C141,311.5 146.5,296.6 152.9,281.4C157.5,290.2 162.2,298.9 167.2,307.5ZM136.9,187.2C151.3,184 166.6,181.4 182.5,179.4C177.2,187.7 172,196.2 167.1,204.8C162.2,213.3 157.4,222 152.9,230.8C146.6,215.9 141.3,201.3 136.9,187.2ZM164.3,256.1C170.9,242.3 178.1,228.8 185.7,215.5C193.3,202.2 201.5,189.3 210.1,176.6C225.1,175.5 240.4,174.9 256,174.9C271.6,174.9 287,175.5 301.9,176.6C310.4,189.2 318.5,202.1 326.2,215.3C333.9,228.5 341.1,242 347.9,255.7C341.2,269.5 334,283.1 326.3,296.5C318.7,309.8 310.6,322.7 302.1,335.5C287.2,336.6 271.7,337.1 256,337.1C240.3,337.1 225.1,336.6 210.4,335.7C201.7,323 193.5,310 185.8,296.7C178.1,283.4 171,269.9 164.3,256.1ZM344.9,307.3C350,298.5 354.8,289.6 359.5,280.6C365.9,295.1 371.5,309.8 376.4,324.9C360.9,328.4 345.2,331.1 329.4,332.9C334.8,324.5 339.9,315.9 344.9,307.3ZM359.3,230.8C354.6,222 349.8,213.2 344.8,204.6C339.9,196.1 334.8,187.7 329.5,179.4C345.6,181.4 361,184.1 375.4,187.4C370.8,202.2 365.4,216.6 359.3,230.8ZM256.2,118.3C266.7,129.7 276.6,141.7 285.8,154.1C266,153.2 246.1,153.2 226.3,154.1C236.1,141.2 246.2,129.2 256.2,118.3ZM140.2,57C157,47.2 194.3,61.2 233.6,96C236.1,98.2 238.6,100.6 241.2,103C225.7,119.7 211.4,137.5 198.3,156.1C175.7,158.1 153.3,161.6 131.1,166.5C129.8,161.4 128.7,156.2 127.6,151C118.2,102.6 124.4,66.1 140.2,57ZM115.7,320.6C111.5,319.4 107.4,318.1 103.3,316.7C82,310 57.8,299.4 40.3,285.5C30.2,278.5 23.4,267.7 21.5,255.6C21.5,237.3 53.1,213.9 98.7,198C104.4,196 110.2,194.2 116,192.5C122.8,214.2 131,235.5 140.5,256.1C130.9,277 122.6,298.6 115.7,320.6ZM232.3,418.6C215.8,433.7 196.7,445.7 175.9,453.9C164.8,459.2 152,459.7 140.6,455.2C124.7,446 118.1,410.7 127.1,363.2C128.2,357.6 129.4,352 130.8,346.5C153.2,351.3 175.8,354.6 198.7,356.3C211.9,375 226.4,392.9 241.9,409.7C238.7,412.8 235.5,415.8 232.3,418.6ZM256.8,394.3C246.6,383.3 236.4,371.1 226.5,358C236.1,358.4 246,358.6 256,358.6C266.3,358.6 276.4,358.4 286.4,357.9C277.2,370.6 267.3,382.7 256.8,394.3ZM387.5,424.3C386.6,436.5 380.6,447.9 371,455.6C355.1,464.8 321.2,452.8 284.6,421.4C280.4,417.8 276.2,413.9 271.9,409.9C287.2,393 301.3,375.1 314.1,356.3C337,354.4 359.8,350.9 382.3,345.8C383.3,349.9 384.2,354 385,358C389.9,379.6 390.7,402.1 387.5,424.3ZM405.7,316.8C402.9,317.7 400.1,318.6 397.2,319.4C390.2,297.6 381.6,276.3 371.7,255.6C381.3,235.2 389.4,214.2 396.2,192.7C401.4,194.2 406.4,195.8 411.2,197.4C457.8,213.4 490.5,237.2 490.5,255.4C490.5,275 455.6,300.3 405.7,316.8ZM256,301.8C281.3,301.8 301.8,281.3 301.8,256C301.8,230.7 281.3,210.2 256,210.2C230.7,210.2 210.2,230.7 210.2,256C210.2,281.3 230.7,301.8 256,301.8Z" style="fill-rule:nonzero;"/>
    </g>
</svg>
